X:1
T:Title
%%score { ( 1 3 ) | ( 2 4 ) }
L:1/8
M:4/4
K:Bb
V:1 treble nm="Grand Piano"
V:3 treble 
V:2 bass 
V:4 bass 
V:1
 z4 z2[Q:1/4=100] [B,D][CE] | [DF][_D=E][=DF][DB] [Fd]2 [Ec][DB] | AcBG [B,DF]2 B,C | %3
 DEFG F<B [Fd]<[Fd] |[M:3/4] [Fc]6 |[M:1/4] [B,FB]c |[M:4/4] dddd e2 [Gd][Gd] | %7
[M:9/8] [Gd][CGc][CGc] [CG] [_DGB]2- [DGB]AG |[M:4/4] FGAB d<B c<c |[M:3/4] B6 |[M:1/4] dd | %11
[M:4/4] c2 =B2 c2 [Ge]2 | [Ge][Fd][DB][EG] [DF]2 [DF][DF] | [D^F][FA][Fd][Ac] [GB][DG][=EA][EB] | %14
[M:3/4] [Fc]6 |[M:1/4] [B,FB]c |[M:4/4] dddd e2 [Gd][Gd] | %17
[M:9/8] [Gd][CGc][CGc] [CG] [_DGB]2- [DGB]AG |[M:4/4] FGAB d<B c<c |[M:7/4] B6 z2 z2 z4 |] %20
V:2
 z4 z2 [B,,F,][B,,F,] | [B,,B,][B,,B,][B,,B,][B,,B,] [B,,B,]2 [B,,B,][B,,B,] | %2
 [E,G,E][E,^F,E][E,G,E][E,B,E] B,,2 B,,C, | D,E,F,G, F,<B, [B,,B,]<[B,,B,] | %4
[M:3/4] [F,A,]2 A,G, F,E, |[M:1/4] D,[K:treble][F,A,F] | %6
[M:4/4] [B,F][B,F][B,F][B,F] [G,=B,G]2[K:bass] [F,B,][F,B,] | %7
[M:9/8] [E,C]E,E, E, =E,2- E,[E,B,_D][E,B,D] | %8
[M:4/4] [F,B,D][F,B,D][F,B,D][F,B,D] [F,B,F]<[F,B,D] [F,A,E]<[F,A,E] |[M:3/4] z2 G,<G, F,2 | %10
[M:1/4][K:treble] [B,F][B,F] |[M:4/4][K:bass] [F,A,E]2 [F,_A,D]2 [F,=A,E]2 [F,A,]2 | %12
 [B,,B,][B,,B,][B,,F,][B,,B,] [B,,B,]2 [B,,B,][B,,B,] | %13
 [D,A,][D,D][D,D][D,D] [G,D][G,B,][C,C][C,G,] |[M:3/4] [F,A,]2 A,G, F,E, | %15
[M:1/4] D,[K:treble][F,A,F] |[M:4/4] [B,F][B,F][B,F][B,F] [G,=B,G]2[K:bass] [F,B,][F,B,] | %17
[M:9/8] [E,C]E,E, E, =E,2- E,[E,B,_D][E,B,D] | %18
[M:4/4] [F,B,D][F,B,D][F,B,D][F,B,D] [F,B,F]<[F,B,D] [F,A,E]<[F,A,E] | %19
[M:7/4] z2 G,<G, F,2 z2 z2 z4 |] %20
V:3
 x8 | x8 | x8 | x8 |[M:3/4] z2 CB, A,2 |[M:1/4] x2 |[M:4/4] x8 |[M:9/8] x9 |[M:4/4] x8 | %9
[M:3/4] [B,D]2 E<E D2 |[M:1/4] x2 |[M:4/4] x8 | x8 | x8 |[M:3/4] z2 CB, A,2 |[M:1/4] x2 | %16
[M:4/4] x8 |[M:9/8] x9 |[M:4/4] x8 |[M:7/4] [B,D]2 E<E D2 z2 z2 z4 |] %20
V:4
 x8 | x8 | x8 | x8 |[M:3/4] x6 |[M:1/4] x[K:treble] x |[M:4/4] x6[K:bass] x2 |[M:9/8] x9 | %8
[M:4/4] x8 |[M:3/4] B,,6 |[M:1/4][K:treble] x2 |[M:4/4][K:bass] x8 | x8 | x8 |[M:3/4] x6 | %15
[M:1/4] x[K:treble] x |[M:4/4] x6[K:bass] x2 |[M:9/8] x9 |[M:4/4] x8 |[M:7/4] B,,6 z2 z2 z4 |] %20

